X:86
T:YEJACOB- Ye Jacobites by Name
S:SMM #371
Q:1/4=60
L:1/4
M:C
K:Am
E|A3/4 B/4 A/ G/ EE/ E/|cB/ A/ {A/}B3/2 G/|\
A3/4 B/4 A/ G/ EE3/4 ^G/4|A3||(A/B/)|\
c3/4 d/4 e/ f/ g3/2(f/4e/4)|d/ c/ B/ A/G(c/e/)|\
e/ A/ B/ A/ (E3/4D/4) E/ ^G/|A3|]

